src/assets/partners/utb.svg

<svg width="316" height="32" viewBox="0 0 316 32" fill="none" xmlns="http://www.w3.org/2000/svg">
<g clip-path="url(#clip0_2647_35)">
<path d="M17.21 0.07L0 5.86V0H17.21V0.07ZM0.07 6.74C0.07 7.58 1.44 8.35 3.07 8.35C3.638 8.34591 4.20173 8.25139 4.74 8.07C5.26 7.91 21.28 2.3 21.28 2.3V25.3C21.28 25.3 5.16 31 4.72 31.12C4.18049 31.2964 3.61754 31.3908 3.05 31.4C1.4 31.4 0.05 30.56 0.05 29.07V6.74H0.07Z" fill="white"/>
<path d="M42.7801 15.3691C42.7801 19.1891 41.3101 21.2791 37.5901 21.2791C33.8701 21.2791 32.3301 19.1891 32.3301 15.3691V4.36914H34.5401V15.2791C34.5401 17.8591 35.2701 19.1891 37.5901 19.1891C39.9101 19.1891 40.5901 17.8591 40.5901 15.2791V4.38914H42.8001L42.7801 15.3691Z" fill="white"/>
<path d="M52.24 13.9994C52.2718 13.7291 52.2449 13.4551 52.1611 13.1962C52.0772 12.9372 51.9385 12.6995 51.7543 12.4991C51.5701 12.2988 51.3448 12.1406 51.0938 12.0353C50.8428 11.9301 50.572 11.8803 50.3 11.8894C50.0131 11.8629 49.7239 11.8988 49.4522 11.9945C49.1804 12.0902 48.9326 12.2435 48.7255 12.4438C48.5185 12.6442 48.3572 12.8869 48.2527 13.1554C48.1482 13.4239 48.1029 13.7118 48.12 13.9994V21.1794H46V10.0894H48.09V10.9994C48.414 10.6592 48.8081 10.3936 49.245 10.221C49.6818 10.0483 50.151 9.97269 50.62 9.99937C52.79 9.99937 54.3 11.4594 54.3 13.9294V21.1794H52.24V13.9994Z" fill="white"/>
<path d="M58.6203 8.00013C58.4407 8.02474 58.2578 8.00867 58.0852 7.95309C57.9126 7.89752 57.7547 7.80387 57.6232 7.67906C57.4917 7.55425 57.3899 7.40148 57.3253 7.23204C57.2608 7.0626 57.2352 6.88082 57.2503 6.70013C57.2797 6.3557 57.4373 6.03485 57.6919 5.80104C57.9466 5.56724 58.2797 5.4375 58.6253 5.4375C58.971 5.4375 59.3041 5.56724 59.5587 5.80104C59.8133 6.03485 59.9709 6.3557 60.0003 6.70013C60.0003 7.58013 59.4903 8.00013 58.6203 8.00013ZM59.6703 21.1601H57.5803V10.0901H59.6703V21.1601Z" fill="white"/>
<path d="M61.2998 10.0898H63.6198L66.3698 18.3698L69.0898 10.0898H71.4098L67.3698 21.1598H65.3398L61.2998 10.0898Z" fill="white"/>
<path d="M74.1299 16.47C74.3599 18.47 75.5299 19.3 76.9399 19.3C78.1179 19.3287 79.2829 19.0495 80.3199 18.49L80.6899 20.49C79.5137 21.0469 78.2203 21.3111 76.9199 21.26C74.1299 21.26 71.9199 19.54 71.9199 15.7C71.9199 11.86 73.9999 10 76.5999 10C79.5999 10 81.2499 12.14 81.2499 15.37V16.49L74.1299 16.47ZM78.9999 14.79C78.9999 12.86 77.9999 11.84 76.5599 11.84C75.4099 11.84 74.3199 12.49 74.0899 14.79H78.9999Z" fill="white"/>
<path d="M88.6598 12.4005C88.2514 12.2154 87.8082 12.1199 87.3598 12.1205C86.4798 12.1205 85.8898 12.8405 85.8898 13.9805V21.1605H83.7998V10.0905H85.8898V11.3505C86.0443 10.9459 86.3186 10.598 86.6759 10.3532C87.0332 10.1084 87.4567 9.97842 87.8898 9.98049C88.2337 9.98366 88.5736 10.055 88.8898 10.1905L88.6598 12.4005Z" fill="white"/>
<path d="M98.1001 21.1598H89.8701L95.1401 11.8398H90.1001V10.0898H98.3501L93.3101 19.2998H98.1001V21.1598Z" fill="white"/>
<path d="M101.49 8.00079C101.31 8.02737 101.126 8.01267 100.953 7.95782C100.779 7.90296 100.621 7.80937 100.489 7.68414C100.357 7.5589 100.255 7.4053 100.191 7.23494C100.127 7.06457 100.103 6.88192 100.12 6.70079C100.098 6.5173 100.118 6.3312 100.18 6.15698C100.242 5.98276 100.343 5.82515 100.475 5.69642C100.608 5.56769 100.769 5.47133 100.945 5.41484C101.121 5.35836 101.307 5.34328 101.49 5.37079C101.672 5.34534 101.858 5.36186 102.033 5.41909C102.208 5.47631 102.368 5.57273 102.5 5.701C102.632 5.82927 102.733 5.986 102.796 6.15926C102.858 6.33252 102.88 6.51773 102.86 6.70079C102.877 6.88192 102.853 7.06457 102.789 7.23494C102.725 7.4053 102.623 7.5589 102.491 7.68414C102.359 7.80937 102.201 7.90296 102.027 7.95782C101.854 8.01267 101.67 8.02737 101.49 8.00079ZM102.49 21.1608H100.4V10.0908H102.49V21.1608Z" fill="white"/>
<path d="M111.11 20.9105C110.547 21.1821 109.925 21.3092 109.3 21.2805C108.02 21.2805 106.53 20.7905 106.53 18.3705V11.8405H105.09V10.0905H106.53V5.79055L108.63 5.56055V10.0905H110.44V11.8405H108.63V18.3705C108.63 19.1605 109.04 19.3705 109.51 19.3705C109.974 19.3556 110.429 19.236 110.84 19.0205L111.11 20.9105Z" fill="white"/>
<path d="M118.9 20.191C118.569 20.5607 118.159 20.8508 117.7 21.0396C117.241 21.2284 116.745 21.3109 116.25 21.281C113.86 21.281 112.51 20.021 112.51 17.751C112.51 15.481 114.13 14.141 116.32 14.141C117.264 14.1045 118.187 14.43 118.9 15.051V13.701C118.9 12.371 118.02 11.881 116.9 11.881C115.832 11.9064 114.78 12.1372 113.8 12.561L113.57 10.651C114.701 10.1962 115.911 9.96852 117.13 9.98095C119.62 9.98095 121.03 11.281 121.03 13.701V21.161H118.9V20.191ZM118.9 17.421C118.9 16.561 117.85 15.981 116.74 15.981C115.63 15.981 114.74 16.441 114.74 17.751C114.74 19.061 115.74 19.371 116.74 19.371C117.95 19.371 118.9 18.581 118.9 17.791V17.421Z" fill="white"/>
<path d="M132.73 21.1604V6.49039H128.66V4.40039H139.01V6.49039H134.94V21.1604H132.73Z" fill="white"/>
<path d="M143.24 21.28C140.54 21.28 138.19 19.72 138.19 15.63C138.19 11.54 140.63 10 143.24 10C145.85 10 148.24 11.56 148.24 15.65C148.24 19.74 145.86 21.3 143.24 21.3M143.24 11.86C141.59 11.86 140.4 13.16 140.4 15.65C140.4 18.14 141.63 19.32 143.24 19.32C144.85 19.32 146.08 18.04 146.08 15.65C146.08 13.26 144.89 11.86 143.24 11.86Z" fill="white"/>
<path d="M163.26 13.9992C163.293 13.7294 163.268 13.4556 163.185 13.1967C163.103 12.9377 162.965 12.6998 162.781 12.4992C162.598 12.2986 162.373 12.1402 162.123 12.0349C161.872 11.9296 161.602 11.8799 161.33 11.8892C161.042 11.8612 160.752 11.8959 160.479 11.9909C160.206 12.0859 159.957 12.239 159.749 12.4395C159.54 12.6401 159.378 12.8833 159.273 13.1526C159.168 13.4218 159.123 13.7107 159.14 13.9992V21.1792H157.05V13.9992C157.083 13.7294 157.058 13.4556 156.975 13.1967C156.893 12.9377 156.755 12.6998 156.571 12.4992C156.388 12.2986 156.163 12.1402 155.913 12.0349C155.662 11.9296 155.391 11.8799 155.12 11.8892C154.832 11.8612 154.542 11.8959 154.269 11.9909C153.996 12.0859 153.747 12.239 153.539 12.4395C153.33 12.6401 153.168 12.8833 153.063 13.1526C152.958 13.4218 152.913 13.7107 152.93 13.9992V21.1792H150.84V10.0892H152.93V10.9992C153.256 10.6593 153.652 10.3941 154.091 10.2215C154.529 10.0489 154.999 9.97304 155.47 9.99918C156.084 9.96912 156.694 10.1046 157.238 10.3913C157.782 10.678 158.238 11.1056 158.56 11.6292C158.902 11.1205 159.366 10.7051 159.909 10.4206C160.452 10.136 161.057 9.99115 161.67 9.99918C163.84 9.99918 165.35 11.4592 165.35 13.9292V21.1792H163.26V13.9992Z" fill="white"/>
<path d="M174.29 20.1894C173.959 20.5591 173.549 20.8493 173.09 21.038C172.631 21.2268 172.135 21.3093 171.64 21.2794C169.25 21.2794 167.9 20.0194 167.9 17.7494C167.9 15.4794 169.53 14.1394 171.71 14.1394C172.655 14.1009 173.578 14.4267 174.29 15.0494V13.6994C174.29 12.3694 173.41 11.8794 172.29 11.8794C171.223 11.9058 170.17 12.1366 169.19 12.5594L168.96 10.6494C170.091 10.1959 171.301 9.96824 172.52 9.97937C175.01 9.97937 176.43 11.2794 176.43 13.6994V21.1594H174.33L174.29 20.1894ZM174.29 17.4194C174.29 16.5594 173.29 15.9794 172.13 15.9794C170.97 15.9794 170.13 16.4394 170.13 17.7494C170.13 19.0594 171.13 19.3694 172.13 19.3694C173.34 19.3694 174.29 18.5794 174.29 17.7894V17.4194ZM172.88 4.85938H175.23L173 8.53937H171.35L172.88 4.85938Z" fill="white"/>
<path d="M182.59 21.2809C181.337 21.2842 180.098 21.0146 178.96 20.4909L179.33 18.4909C180.345 18.9912 181.458 19.261 182.59 19.2809C183.59 19.2809 184.5 19.0009 184.5 18.0009C184.5 17.0009 183.43 16.7509 182.24 16.4509C180.71 16.0509 178.94 15.5609 178.94 13.2609C178.94 10.9609 180.5 10.0009 183.1 10.0009C184.255 9.9908 185.401 10.2118 186.47 10.6509L186.13 12.6009C185.203 12.1203 184.174 11.8667 183.13 11.8609C181.87 11.8609 181.13 12.2809 181.13 13.2809C181.13 14.0709 182.03 14.2809 183.13 14.6209C184.76 15.0709 186.78 15.6209 186.78 18.0009C186.78 20.1109 185.55 21.3009 182.62 21.3009M179.62 4.88086H181.48L182.9 6.95086L184.32 4.88086H186.18L184 8.54086H181.77L179.62 4.88086Z" fill="white"/>
<path d="M190.87 16.47C191.1 18.47 192.26 19.3 193.68 19.3C194.855 19.3289 196.017 19.0496 197.05 18.49L197.42 20.49C196.247 21.0457 194.957 21.3098 193.66 21.26C190.87 21.26 188.66 19.54 188.66 15.7C188.66 11.86 190.7 10 193.33 10C196.33 10 197.98 12.14 197.98 15.37V16.49L190.87 16.47ZM195.77 14.79C195.77 12.86 194.77 11.84 193.33 11.84C192.19 11.84 191.1 12.49 190.87 14.79H195.77Z" fill="white"/>
<path d="M210.53 21.1604H205.88V4.40039H210.88C213.97 4.40039 215.79 6.09039 215.79 8.86039C215.816 9.6396 215.598 10.4075 215.168 11.0579C214.738 11.7082 214.117 12.2088 213.39 12.4904C214.15 12.804 214.797 13.3409 215.245 14.0302C215.693 14.7194 215.922 15.5285 215.9 16.3504C215.9 19.3504 213.83 21.1604 210.53 21.1604ZM210.9 6.49039H208.09V11.4904H210.6C212.32 11.4904 213.46 10.6504 213.46 9.00039C213.489 8.66005 213.442 8.31756 213.322 7.9976C213.203 7.67764 213.014 7.38816 212.769 7.15002C212.524 6.91187 212.229 6.73098 211.906 6.62038C211.583 6.50978 211.239 6.47221 210.9 6.51039M210.6 13.5804H208.09V19.0904H210.6C212.34 19.0904 213.6 18.1404 213.6 16.4204C213.616 16.0293 213.548 15.6393 213.401 15.2766C213.253 14.914 213.03 14.5871 212.746 14.318C212.462 14.0489 212.123 13.8438 211.753 13.7166C211.383 13.5894 210.99 13.5429 210.6 13.5804Z" fill="white"/>
<path d="M224.39 20.1909C224.058 20.5595 223.648 20.8488 223.189 21.0375C222.731 21.2261 222.235 21.3093 221.74 21.2809C219.34 21.2809 217.99 20.0209 217.99 17.7509C217.99 15.4809 219.62 14.1409 221.8 14.1409C222.748 14.1049 223.673 14.4302 224.39 15.0509V13.7009C224.39 12.3709 223.5 11.8809 222.39 11.8809C221.326 11.907 220.277 12.1379 219.3 12.5609L219 10.6509C220.132 10.1973 221.341 9.96972 222.56 9.98086C225.05 9.98086 226.47 11.2809 226.47 13.7009V21.1609H224.38L224.39 20.1909ZM224.39 17.4209C224.39 16.5609 223.39 15.9809 222.22 15.9809C221.05 15.9809 220.22 16.4409 220.22 17.7509C220.22 19.0609 221.22 19.3709 222.22 19.3709C223.43 19.3709 224.39 18.5809 224.39 17.7909V17.4209Z" fill="white"/>
<path d="M234.59 20.9105C234.027 21.1821 233.404 21.3092 232.78 21.2805C231.5 21.2805 230.01 20.7905 230.01 18.3705V11.8405H228.57V10.0905H230V5.79055L232.09 5.56055V10.0905H233.91V11.8405H232.1V18.3705C232.1 19.1605 232.52 19.3705 232.99 19.3705C233.451 19.3569 233.903 19.2371 234.31 19.0205L234.59 20.9105Z" fill="white"/>
<path d="M237.73 8.00013C237.55 8.0264 237.366 8.01157 237.192 7.95674C237.018 7.90192 236.859 7.80851 236.726 7.68351C236.593 7.55851 236.491 7.40513 236.425 7.23485C236.36 7.06457 236.335 6.88178 236.35 6.70013C236.379 6.3557 236.537 6.03485 236.792 5.80104C237.046 5.56724 237.379 5.4375 237.725 5.4375C238.071 5.4375 238.404 5.56724 238.658 5.80104C238.913 6.03485 239.071 6.3557 239.1 6.70013C239.117 6.88127 239.093 7.06392 239.029 7.23428C238.965 7.40464 238.863 7.55825 238.731 7.68348C238.599 7.80872 238.441 7.90231 238.267 7.95716C238.094 8.01202 237.91 8.02671 237.73 8.00013ZM238.73 21.1601H236.64V10.0901H238.73V21.1601Z" fill="white"/>
<path d="M245.75 10.0898H248.07L250.81 18.3698L253.53 10.0898H255.86L251.82 21.1598H249.79L245.75 10.0898Z" fill="white"/>
<path d="M258.58 16.47C258.81 18.47 259.97 19.3 261.39 19.3C262.568 19.3287 263.733 19.0495 264.77 18.49L265.14 20.49C263.963 21.0458 262.67 21.3099 261.37 21.26C258.58 21.26 256.32 19.54 256.32 15.7C256.32 11.86 258.42 10 261 10C264 10 265.65 12.14 265.65 15.37V16.49L258.58 16.47ZM263.49 14.79C263.49 12.86 262.49 11.84 261.04 11.84C259.9 11.84 258.81 12.49 258.58 14.79H263.49Z" fill="white"/>
<path d="M282.17 21.1604H272.43L279.36 6.49039H272.89V4.40039H282.66L275.71 19.0704H282.17V21.1604Z" fill="white"/>
<path d="M286.84 4.39062H284.75V21.1606H286.84V4.39062Z" fill="white"/>
<path d="M291.51 4.85938H293.87L291.68 8.53937H290L291.51 4.85938ZM292.19 21.1594H290.1V10.0894H292.19V21.1594Z" fill="white"/>
<path d="M301.65 13.9994C301.684 13.7296 301.658 13.4558 301.576 13.1969C301.493 12.9379 301.355 12.7 301.172 12.4994C300.988 12.2988 300.763 12.1404 300.513 12.0351C300.262 11.9298 299.992 11.8801 299.72 11.8894C299.433 11.8629 299.144 11.8988 298.872 11.9945C298.601 12.0902 298.353 12.2435 298.146 12.4438C297.939 12.6442 297.777 12.8869 297.673 13.1554C297.568 13.4239 297.523 13.7118 297.54 13.9994V21.1794H295.45V10.0894H297.54V10.9994C297.864 10.6592 298.258 10.3936 298.695 10.221C299.132 10.0483 299.601 9.97269 300.07 9.99937C302.23 9.99937 303.75 11.4594 303.75 13.9294V21.1794H301.65V13.9994Z" fill="white"/>
<path d="M308.56 16.4694C308.79 18.4694 309.95 19.2994 311.37 19.2994C312.545 19.3282 313.706 19.049 314.74 18.4894L315.11 20.4894C313.937 21.0451 312.647 21.3092 311.35 21.2594C308.56 21.2594 306.3 19.5394 306.3 15.6994C306.3 11.8594 308.39 9.99937 311 9.99937C314 9.99937 315.65 12.1394 315.65 15.3694V16.4894L308.56 16.4694ZM307.72 4.85938H309.58L311 6.92937L312.41 4.85938H314.28L312.11 8.53937H309.88L307.72 4.85938ZM313.46 14.7894C313.46 12.8594 312.51 11.8394 311.02 11.8394C309.88 11.8394 308.79 12.4894 308.56 14.7894H313.46Z" fill="white"/>
</g>
<defs>
<clipPath id="clip0_2647_35">
<rect width="315.67" height="31.4" fill="white"/>
</clipPath>
</defs>
</svg>

<svg xmlns="http://www.w3.org/2000/svg" viewBox="0 0 315.67 31.4"><g id="Layer_2" data-name="Layer 2"><g id="Vrstva_1" data-name="Vrstva 1"><path d="M17.21.07,0,5.86V0H17.21ZM.07,6.74c0,.84,1.37,1.61,3,1.61a5.35,5.35,0,0,0,1.67-.28C5.26,7.91,21.28,2.3,21.28,2.3v23S5.16,31,4.72,31.12a5.67,5.67,0,0,1-1.67.28c-1.65,0-3-.84-3-2.33V6.74Z"/><path d="M42.78,15.37c0,3.82-1.47,5.91-5.19,5.91s-5.26-2.09-5.26-5.91v-11h2.21V15.28c0,2.58.73,3.91,3.05,3.91s3-1.33,3-3.91V4.39h2.21Z"/><path d="M52.24,14a1.89,1.89,0,0,0-1.94-2.11A2,2,0,0,0,48.12,14v7.18H46V10.09h2.09V11a3.24,3.24,0,0,1,2.53-1c2.17,0,3.68,1.46,3.68,3.93v7.25H52.24Z"/><path d="M58.62,8a1.21,1.21,0,0,1-1.37-1.3A1.38,1.38,0,0,1,60,6.7c0,.88-.51,1.3-1.38,1.3m1.05,13.16H57.58V10.09h2.09Z"/><polygon points="61.3 10.09 63.62 10.09 66.37 18.37 69.09 10.09 71.41 10.09 67.37 21.16 65.34 21.16 61.3 10.09"/><path d="M74.13,16.47c.23,2,1.4,2.83,2.81,2.83a6.77,6.77,0,0,0,3.38-.81l.37,2a8.07,8.07,0,0,1-3.77.77c-2.79,0-5-1.72-5-5.56S74,10,76.6,10c3,0,4.65,2.14,4.65,5.37v1.12ZM79,14.79c0-1.93-1-2.95-2.44-2.95-1.15,0-2.24.65-2.47,2.95Z"/><path d="M88.66,12.4a3.14,3.14,0,0,0-1.3-.28c-.88,0-1.47.72-1.47,1.86v7.18H83.8V10.09h2.09v1.26a2.13,2.13,0,0,1,2-1.37,2.6,2.6,0,0,1,1,.21Z"/><polygon points="98.1 21.16 89.87 21.16 95.14 11.84 90.1 11.84 90.1 10.09 98.35 10.09 93.31 19.3 98.1 19.3 98.1 21.16"/><path d="M101.49,8a1.2,1.2,0,0,1-1.37-1.3,1.2,1.2,0,0,1,1.37-1.33,1.21,1.21,0,0,1,1.37,1.33A1.2,1.2,0,0,1,101.49,8m1,13.16h-2.09V10.09h2.09Z"/><path d="M111.11,20.91a3.77,3.77,0,0,1-1.81.37c-1.28,0-2.77-.49-2.77-2.91V11.84h-1.44V10.09h1.44V5.79l2.1-.23v4.53h1.81v1.75h-1.81v6.53c0,.79.41,1,.88,1a3.08,3.08,0,0,0,1.33-.35Z"/><path d="M118.9,20.19a3.29,3.29,0,0,1-2.65,1.09c-2.39,0-3.74-1.26-3.74-3.53s1.62-3.61,3.81-3.61a3.71,3.71,0,0,1,2.58.91V13.7c0-1.33-.88-1.82-2-1.82a8.31,8.31,0,0,0-3.1.68l-.23-1.91a9.29,9.29,0,0,1,3.56-.67c2.49,0,3.9,1.3,3.9,3.72v7.46H118.9Zm0-2.77c0-.86-1.05-1.44-2.16-1.44s-2,.46-2,1.77,1,1.62,2,1.62c1.21,0,2.16-.79,2.16-1.58Z"/><polygon points="132.73 21.16 132.73 6.49 128.66 6.49 128.66 4.4 139.01 4.4 139.01 6.49 134.94 6.49 134.94 21.16 132.73 21.16"/><path d="M143.24,21.28c-2.7,0-5.05-1.56-5.05-5.65S140.63,10,143.24,10s5,1.56,5,5.65-2.38,5.65-5,5.65m0-9.44c-1.65,0-2.84,1.3-2.84,3.79s1.23,3.67,2.84,3.67,2.84-1.28,2.84-3.67-1.19-3.79-2.84-3.79"/><path d="M163.26,14a1.88,1.88,0,0,0-1.93-2.11A2,2,0,0,0,159.14,14v7.18h-2.09V14a1.88,1.88,0,0,0-1.93-2.11A2,2,0,0,0,152.93,14v7.18h-2.09V10.09h2.09V11a3.27,3.27,0,0,1,2.54-1,3.43,3.43,0,0,1,3.09,1.63A3.69,3.69,0,0,1,161.67,10c2.17,0,3.68,1.46,3.68,3.93v7.25h-2.09Z"/><path d="M174.29,20.19a3.29,3.29,0,0,1-2.65,1.09c-2.39,0-3.74-1.26-3.74-3.53s1.63-3.61,3.81-3.61a3.69,3.69,0,0,1,2.58.91V13.7c0-1.33-.88-1.82-2-1.82a8.35,8.35,0,0,0-3.1.68l-.23-1.91a9.34,9.34,0,0,1,3.56-.67c2.49,0,3.91,1.3,3.91,3.72v7.46h-2.1Zm0-2.77c0-.86-1-1.44-2.16-1.44s-2,.46-2,1.77,1,1.62,2,1.62c1.21,0,2.16-.79,2.16-1.58ZM172.88,4.86h2.35L173,8.54h-1.65Z"/><path d="M182.59,21.28a8.63,8.63,0,0,1-3.63-.79l.37-2a7.68,7.68,0,0,0,3.26.79c1,0,1.91-.28,1.91-1.28s-1.07-1.25-2.26-1.55c-1.53-.4-3.3-.89-3.3-3.19S180.5,10,183.1,10a8.67,8.67,0,0,1,3.37.65l-.34,1.95a6.6,6.6,0,0,0-3-.74c-1.26,0-2,.42-2,1.42,0,.79.9,1,2,1.34,1.63.45,3.65,1,3.65,3.38,0,2.11-1.23,3.3-4.16,3.3m-3-16.42h1.86l1.42,2.07,1.42-2.07h1.86L184,8.54h-2.23Z"/><path d="M190.87,16.47c.23,2,1.39,2.83,2.81,2.83a6.73,6.73,0,0,0,3.37-.81l.37,2a8.06,8.06,0,0,1-3.76.77c-2.79,0-5-1.72-5-5.56S190.7,10,193.33,10c3,0,4.65,2.14,4.65,5.37v1.12Zm4.9-1.68c0-1.93-1-2.95-2.44-2.95-1.14,0-2.23.65-2.46,2.95Z"/><path d="M210.53,21.16h-4.65V4.4h5c3.09,0,4.91,1.69,4.91,4.46a3.76,3.76,0,0,1-2.4,3.63,4.06,4.06,0,0,1,2.51,3.86c0,3-2.07,4.81-5.37,4.81m.37-14.67h-2.81v5h2.51c1.72,0,2.86-.84,2.86-2.49a2.31,2.31,0,0,0-2.56-2.49m-.3,7.07h-2.51v5.51h2.51c1.74,0,3-.95,3-2.67a2.74,2.74,0,0,0-3-2.84"/><path d="M224.39,20.19a3.31,3.31,0,0,1-2.65,1.09c-2.4,0-3.75-1.26-3.75-3.53s1.63-3.61,3.81-3.61a3.74,3.74,0,0,1,2.59.91V13.7c0-1.33-.89-1.82-2-1.82a8.29,8.29,0,0,0-3.09.68L219,10.65a9.34,9.34,0,0,1,3.56-.67c2.49,0,3.91,1.3,3.91,3.72v7.46h-2.09Zm0-2.77c0-.86-1-1.44-2.17-1.44s-2,.46-2,1.77,1,1.62,2,1.62c1.21,0,2.17-.79,2.17-1.58Z"/><path d="M234.59,20.91a3.77,3.77,0,0,1-1.81.37c-1.28,0-2.77-.49-2.77-2.91V11.84h-1.44V10.09H230V5.79l2.09-.23v4.53h1.82v1.75H232.1v6.53c0,.79.42,1,.89,1a3,3,0,0,0,1.32-.35Z"/><path d="M237.73,8a1.21,1.21,0,0,1-1.38-1.3,1.38,1.38,0,0,1,2.75,0A1.2,1.2,0,0,1,237.73,8m1,13.16h-2.09V10.09h2.09Z"/><polygon points="245.75 10.09 248.07 10.09 250.81 18.37 253.53 10.09 255.86 10.09 251.82 21.16 249.79 21.16 245.75 10.09"/><path d="M258.58,16.47c.23,2,1.39,2.83,2.81,2.83a6.77,6.77,0,0,0,3.38-.81l.37,2a8.1,8.1,0,0,1-3.77.77c-2.79,0-5.05-1.72-5.05-5.56S258.42,10,261,10c3,0,4.65,2.14,4.65,5.37v1.12Zm4.91-1.68c0-1.93-1-2.95-2.45-2.95-1.14,0-2.23.65-2.46,2.95Z"/><polygon points="282.17 21.16 272.43 21.16 279.36 6.49 272.89 6.49 272.89 4.4 282.66 4.4 275.71 19.07 282.17 19.07 282.17 21.16"/><rect x="284.75" y="4.39" width="2.09" height="16.77"/><path d="M291.51,4.86h2.36l-2.19,3.68H290Zm.68,16.3H290.1V10.09h2.09Z"/><path d="M301.65,14a1.88,1.88,0,0,0-1.93-2.11A2,2,0,0,0,297.54,14v7.18h-2.09V10.09h2.09V11a3.24,3.24,0,0,1,2.53-1c2.16,0,3.68,1.46,3.68,3.93v7.25h-2.1Z"/><path d="M308.56,16.47c.23,2,1.39,2.83,2.81,2.83a6.73,6.73,0,0,0,3.37-.81l.37,2a8.06,8.06,0,0,1-3.76.77c-2.79,0-5.05-1.72-5.05-5.56S308.39,10,311,10c3,0,4.65,2.14,4.65,5.37v1.12Zm-.84-11.61h1.86L311,6.93l1.41-2.07h1.87l-2.17,3.68h-2.23Zm5.74,9.93c0-1.93-.95-2.95-2.44-2.95-1.14,0-2.23.65-2.46,2.95Z"/></g></g></svg>
